src/assets/img/globalping/globalping-grid-type-3.svg

<svg xmlns="http://www.w3.org/2000/svg" width="1150" height="559" fill="none">
  <g opacity=".64" style="mix-blend-mode:overlay">
    <path fill="#17233A" d="m459.5 124 2.055 7.443a17.2 17.2 0 0 0 12.002 12.002L481 145.5l-7.443 2.055a17.2 17.2 0 0 0-12.002 12.002L459.5 167l-2.055-7.443a17.2 17.2 0 0 0-12.002-12.002L438 145.5l7.443-2.055a17.2 17.2 0 0 0 12.002-12.002zm0 275 2.055 7.443a17.2 17.2 0 0 0 12.002 12.002L481 420.5l-7.443 2.055a17.2 17.2 0 0 0-12.002 12.002L459.5 442l-2.055-7.443a17.2 17.2 0 0 0-12.002-12.002L438 420.5l7.443-2.055a17.2 17.2 0 0 0 12.002-12.002zm-116 0 2.055 7.443a17.2 17.2 0 0 0 12.002 12.002L365 420.5l-7.443 2.055a17.2 17.2 0 0 0-12.002 12.002L343.5 442l-2.055-7.443a17.2 17.2 0 0 0-12.002-12.002L322 420.5l7.443-2.055a17.2 17.2 0 0 0 12.002-12.002z"/>
    <circle cx="13.5" cy="261.5" r="13.5" fill="#17233A"/>
    <circle cx="321.5" cy="311.5" r="13.5" fill="#17233A"/>
    <circle cx="782.5" cy="385.5" r="13.5" fill="#17233A"/>
    <circle cx="965.5" cy="180.5" r="13.5" fill="#17233A"/>
    <path stroke="#17233A" stroke-width="1.5" d="M330.75 525.75h25.5v25.5h-25.5zm-160-393h25.5v25.5h-25.5z"/>
    <path stroke="#17233A" d="M13.5 261H217c70.14 0 127 56.86 127 127v150"/>
    <circle cx="874" cy="283" r="137.5" stroke="#17233A"/>
    <circle cx="874" cy="283" r="275.5" stroke="#17233A"/>
    <path stroke="#17233A" d="M460-130c0 151.878-123.569 275-276 275m276-275c0 151.878 123.569 275 276 275m-551.5.5h275v275h-275zm276 0h275v275h-275zm276 0h275v275h-275z"/>
  </g>
</svg>

<svg width="1150" height="559" viewBox="0 0 1150 559" fill="none" xmlns="http://www.w3.org/2000/svg">
<g style="mix-blend-mode:overlay" opacity="0.64">
<path d="M459.5 124L461.555 131.443C463.166 137.276 467.724 141.834 473.557 143.445L481 145.5L473.557 147.555C467.724 149.166 463.166 153.724 461.555 159.557L459.5 167L457.445 159.557C455.834 153.724 451.276 149.166 445.443 147.555L438 145.5L445.443 143.445C451.276 141.834 455.834 137.276 457.445 131.443L459.5 124Z" fill="#17233A"/>
<path d="M459.5 399L461.555 406.443C463.166 412.276 467.724 416.834 473.557 418.445L481 420.5L473.557 422.555C467.724 424.166 463.166 428.724 461.555 434.557L459.5 442L457.445 434.557C455.834 428.724 451.276 424.166 445.443 422.555L438 420.5L445.443 418.445C451.276 416.834 455.834 412.276 457.445 406.443L459.5 399Z" fill="#17233A"/>
<path d="M343.5 399L345.555 406.443C347.166 412.276 351.724 416.834 357.557 418.445L365 420.5L357.557 422.555C351.724 424.166 347.166 428.724 345.555 434.557L343.5 442L341.445 434.557C339.834 428.724 335.276 424.166 329.443 422.555L322 420.5L329.443 418.445C335.276 416.834 339.834 412.276 341.445 406.443L343.5 399Z" fill="#17233A"/>
<circle cx="13.5" cy="261.5" r="13.5" fill="#17233A"/>
<circle cx="321.5" cy="311.5" r="13.5" fill="#17233A"/>
<circle cx="782.5" cy="385.5" r="13.5" fill="#17233A"/>
<circle cx="965.5" cy="180.5" r="13.5" fill="#17233A"/>
<rect x="330.75" y="525.75" width="25.5" height="25.5" stroke="#17233A" stroke-width="1.5"/>
<rect x="170.75" y="132.75" width="25.5" height="25.5" stroke="#17233A" stroke-width="1.5"/>
<path d="M13.5 261H217C287.14 261 344 317.86 344 388V538" stroke="#17233A"/>
<circle cx="874" cy="283" r="137.5" stroke="#17233A"/>
<circle cx="874" cy="283" r="275.5" stroke="#17233A"/>
<path d="M460 -130C460 21.8783 336.431 145 184 145" stroke="#17233A"/>
<path d="M460 -130C460 21.8783 583.569 145 736 145" stroke="#17233A"/>
<rect x="184.5" y="145.5" width="275" height="275" stroke="#17233A"/>
<rect x="460.5" y="145.5" width="275" height="275" stroke="#17233A"/>
<rect x="736.5" y="145.5" width="275" height="275" stroke="#17233A"/>
</g>
</svg>
